meat/img/cart-icon-pink.svg

<svg width="40" height="32" viewBox="0 0 40 32" fill="none" xmlns="http://www.w3.org/2000/svg">
<path d="M32.2125 22.8634H18.251C16.2355 22.8634 14.0778 21.3945 13.3395 19.5187L7.69737 5.1971C7.39949 4.44072 6.34973 3.72613 5.53681 3.72613H1.47875C0.662139 3.72654 0 3.0644 0 2.24779C0 1.43118 0.662139 0.769043 1.47875 0.769043H5.53722C7.55314 0.769043 9.71042 2.23796 10.4488 4.11375L16.0909 18.4354C16.3888 19.1918 17.4385 19.9063 18.251 19.9063H32.2125C33.0053 19.9063 34.0051 19.1995 34.2694 18.4526L36.9892 10.7667C37.0654 10.5516 37.0462 10.4205 37.0253 10.3905C37.004 10.3606 36.8868 10.2992 36.6586 10.2992H17.4033C16.5867 10.2992 15.9245 9.63703 15.9245 8.82042C15.9245 8.00381 16.5867 7.34167 17.4033 7.34167H36.6586C37.8235 7.34167 38.8372 7.8309 39.4403 8.68357C40.043 9.53624 40.1659 10.6548 39.7771 11.7529L37.0573 19.4388C36.3779 21.3589 34.2497 22.8634 32.2125 22.8634Z" fill="#ED3F5E"/>
<path d="M14.4503 31.2312C16.2652 31.2312 17.7364 29.7599 17.7364 27.945C17.7364 26.1302 16.2652 24.6589 14.4503 24.6589C12.6354 24.6589 11.1642 26.1302 11.1642 27.945C11.1642 29.7599 12.6354 31.2312 14.4503 31.2312Z" fill="#ED3F5E"/>
<path d="M35.5199 31.2312C37.3347 31.2312 38.806 29.7599 38.806 27.945C38.806 26.1302 37.3347 24.6589 35.5199 24.6589C33.705 24.6589 32.2338 26.1302 32.2338 27.945C32.2338 29.7599 33.705 31.2312 35.5199 31.2312Z" fill="#ED3F5E"/>
<path d="M32.1601 13.845H19.0988C18.6903 13.845 18.3596 13.514 18.3596 13.1059C18.3596 12.6974 18.6907 12.3667 19.0988 12.3667H32.1601C32.5686 12.3667 32.8992 12.6978 32.8992 13.1059C32.8992 13.514 32.5686 13.845 32.1601 13.845Z" fill="#ED3F5E"/>
<path d="M31.1611 17.5418H20.4312C20.0231 17.5418 19.6921 17.2107 19.6921 16.8026C19.6921 16.3941 20.0231 16.0635 20.4312 16.0635H31.1615C31.57 16.0635 31.9007 16.3945 31.9007 16.8026C31.9003 17.2107 31.5696 17.5418 31.1611 17.5418Z" fill="#ED3F5E"/>
</svg>

<svg width="40" height="32" fill="none" xmlns="http://www.w3.org/2000/svg"><path d="M32.212 22.863H18.252c-2.016 0-4.173-1.468-4.912-3.344L7.697 5.197c-.298-.756-1.347-1.47-2.16-1.47H1.479a1.478 1.478 0 1 1 0-2.958h4.058c2.016 0 4.173 1.469 4.912 3.345l5.642 14.321c.298.757 1.348 1.471 2.16 1.471h13.961c.793 0 1.793-.706 2.057-1.453l2.72-7.686c.076-.215.057-.346.036-.377-.021-.03-.138-.09-.366-.09H17.403a1.479 1.479 0 0 1 0-2.958H36.66c1.165 0 2.178.489 2.781 1.342.603.852.726 1.97.337 3.069l-2.72 7.686c-.68 1.92-2.807 3.424-4.845 3.424zM14.45 31.231a3.286 3.286 0 1 0 0-6.572 3.286 3.286 0 0 0 0 6.572zM35.52 31.231a3.286 3.286 0 1 0 0-6.572 3.286 3.286 0 0 0 0 6.572z" fill="#ED3F5E"/><path d="M32.16 13.845H19.1a.739.739 0 1 1 0-1.478H32.16a.739.739 0 1 1 0 1.478zM31.161 17.542h-10.73a.74.74 0 0 1 0-1.479h10.73a.739.739 0 1 1 0 1.479z" fill="#ED3F5E"/></svg>
